X: 2293
T: Back To Ortigueira
R: reel
M: 4/4
K: Amajor
|:A2FA EFAB|cefe cBAF|~B3c BAFA|~B3c BAFB|
A2FA EFAB|cefe cefe|~a3f ecBc|1 ecBc BAFB:|2 ecBc ABce||
|:~f3a fece|~f3a fecA|~B3c BAFA|~B3c ABce|
~f3a fece|~f3a fecA|BcBA FABc|1 BAFB ABce:|2 BAFA BcBA||

